X:1
T:I Can't Feel at Home in this World Anyme
M:4/4
L:1/4
K:E
 G| G- G- G F| E3 E| E3/2 F/2 E C| B,3 E| E E G B| B- B2 G| G F F G|\
 F3 B,| G- G G F| E E2 E| E3/2- F/2 E C| B,2 B, B,| E2 B c| B2 G F|\
 E2 D F| E3||
